!!!COM:	Anonymous
!!!OTL:	Fortuna desperata (&agrave; 4)
!!!AGN:	Song; Chanson
!!!SCT:	Ano3089
!!!SCA:	Ano3089
!!!SMS:
!!!folio:	
!!!voices:	4
**kern	**kern	**kern	**kern
*staff4	*staff3	*staff2	*staff1
*Ivox	*Ivox	*Ivox	*Ivox
*I"Contra	*I"Tenor	*I"[Altus]	*I"[Superius]
*I'C	*I'T	*I'A	*I'S
*clefGv2	*clefGv2	*clefGv2	*clefG2
*k[b-]	*k[b-]	*k[b-]	*k[]
*M2/1	*M2/1	*M2/1	*M2/1
*met(C|)	*met(C|)	*met(C|)	*met(C|)
=1-	=1-	=1-	=1-
!!LO:TX:Z=18:t=Anonymous four-voice version; survives in several sources
0F	0F	0c	0f
=2	=2	=2	=2
1D	1F	1B-	1f
1C	1G	[1c	1e
=3	=3	=3	=3
0F	0A	1c]	0c
.	.	[1f	.
=4	=4	=4	=4
0C	0G	2f]	1r
.	.	4e	.
.	.	4d	.
.	.	1e	1g
=5	=5	=5	=5
0c	0F	1.f	0a
.	.	4e	.
.	.	4d	.
=6	=6	=6	=6
2.A	1r	2.c	1a
4G	.	4B-	.
2F	1c	2A	1a
2E	.	2G	.
=7	=7	=7	=7
0D	1d	0F	0a
.	1d	.	.
=8	=8	=8	=8
0E	1B-	0G	0g
.	1c	.	.
=9	=9	=9	=9
[0D	0d	0A	[0f
=10	=10	=10	=10
1D]	1d	1F	1f]
1G	1B-	1G	1d
=11	=11	=11	=11
0G	0B-	1r	0d
.	.	1g	.
=12	=12	=12	=12
1C	1c	1e	1e
1G	1B-	2r	1d
.	.	[2d	.
=13	=13	=13	=13
1F	1A	2d]	1f
.	.	1c	.
1D	1F	.	[1f
.	.	2Bni	.
=14	=14	=14	=14
0C	0G	1.c	1f]
.	.	.	1e
.	.	2B-	.
=15	=15	=15	=15
1.c	[0F	0A	0f
4B-	.	.	.
4c	.	.	.
=16	=16	=16	=16
1d	0F_	1.f	0r
1c	.	.	.
.	.	4e	.
.	.	4d	.
=17	=17	=17	=17
0A	0F]	1c	0cc
.	.	[1f	.
=18	=18	=18	=18
0F	0r	2f]	1cc
.	.	2e	.
.	.	1f	1a
=19	=19	=19	=19
0G	0r	2d	0b
.	.	1g	.
.	.	2f	.
=20	=20	=20	=20
1B-	0r	1d	1dd
1A	.	1e	1cc
=21	=21	=21	=21
[0F	0f	1r	0a
.	.	1c	.
=22	=22	=22	=22
0F]	1f	1.A	1r
.	1d	.	1a
.	.	2B-	.
=23	=23	=23	=23
0C	0e	1.c	1.g
.	.	4B-	2f
.	.	4A	.
=24	=24	=24	=24
1C	1g	1G	1e
1C	2f	1G	1e
.	2e	.	.
=25	=25	=25	=25
0D	0d	2F	0f
.	.	2G	.
.	.	1A	.
=26	=26	=26	=26
1G	1e	2B-	1g
.	.	2c	.
1F	1f	1d	1a
=27	=27	=27	=27
[0E-i	[0g	[0e-	[0b-
=28	=28	=28	=28
1E-]	1g]	1e-]	1b-]
1F	1f	1c	1a
=29	=29	=29	=29
0F	1f	0c	1a
.	2e	.	1f
.	2d	.	.
=30	=30	=30	=30
0c	0e	0r	0g
=31	=31	=31	=31
1.F	0f	1c	1.a
.	.	1d	.
2G	.	.	2b
=32	=32	=32	=32
1A	1r	1c	1cc
1F	1f	1A	1cc
=33	=33	=33	=33
1B-	1f	1d	1dd
2c	2e	2A	2cc
[2G	[2d	[2B	[2b
=34	=34	=34	=34
2G]	2d]	2B]	2b]
2A	2c	2c	2a
1F	1A	1d	[1a
=35	=35	=35	=35
0E	0Bni	0e	1a]
.	.	.	1g#i
=36	=36	=36	=36
1F	0A	1c	0a
1D	.	1d	.
=37	=37	=37	=37
2A	0c	0e	0r
2G	.	.	.
2F	.	.	.
2E	.	.	.
=38	=38	=38	=38
0D	0d	0f	1.a
.	.	.	4g
.	.	.	4f
=39	=39	=39	=39
[0A	0c	1.a	0e
.	.	4g	.
.	.	4f	.
=40	=40	=40	=40
0A]	0e	1e	0c
.	.	[1c	.
=41	=41	=41	=41
2A	1r	2c]	1r
2G	.	4B-	.
.	.	4A	.
1E	1e	1G	1c
=42	=42	=42	=42
0D	1f	[0A	1d
.	1d	.	1f
=43	=43	=43	=43
1r	0c	1A]	0e
1A	.	1r	.
=44	=44	=44	=44
1D	1d	1B-	1f
[1C	[1e	[1c	[1g
=45	=45	=45	=45
1C]	2e]	1c]	2g]
.	2d	.	2f
1D	2c	2.f	2e
.	2B-	.	2d
.	.	4g	.
=46	=46	=46	=46
0A	0c	0a	0e
=47	=47	=47	=47
[0D	0d	1r	1d
.	.	1a	[1f
=48	=48	=48	=48
0D]	2.d	1.f	2f]
.	.	.	2e
.	4c	.	.
.	1B-	.	2d
.	.	2g	2c
=49	=49	=49	=49
0F	0A	0a	0c
=50	=50	=50	=50
0BB-	0B-	1.f	0d
.	.	4e	.
.	.	4d	.
=51	=51	=51	=51
0C	0G	1c	0e
.	.	1r	.
=52	=52	=52	=52
1F	0A	1c	1r
1D	.	1d	1f
=53	=53	=53	=53
1G	1B-	1e	1g
1F	1A	1f	1a
=54	=54	=54	=54
1.G	1.d	0B-	1.b-i
2A	2c	.	2a
=55	=55	=55	=55
1E	1B-	1r	1g
1F	1A	[1c	1f
=56	=56	=56	=56
0C	0G	1c]	1.e
.	.	1c	.
.	.	.	2d
=57	=57	=57	=57
0cl	0Fl	0A 0cl	0fl
==	==	==	==
*-	*-	*-	*-
!!!RDF**kern: l=long note in original notation
!!!RDF**kern: i=editorial accidental
!!!ENC:	Chris Gage 04-24-2015
!!!END:	2016/02/15/
!!!EED:	Jesse Rodin
!!!EEV:	2016/02/23/
!!!ONB:	Translated from MusicXML and edited on 2016/02/23/ by Craig Sapp
!!muse2ps: C^@{COM}^v85,85,85,150Q16
